X:10
T:Moll In The Wod. WM.010
M:6/8
L:1/8
Q:3/8=120
S:Wm.Mittell’s MS, New Romney,Kent,1799
R:.Jig
O:England
A:Kent
Z:vmp. Chris Partington
K:G
c|BAB G2F|E2FG2A|B2cd2B|AFDD2c|!
BAB G2F|E2FG2A|B2d dcB|AFDD2:|!
|:c|BGBd2c|BGBd2c|B2cd2=f|ecAA2c|!
BGBd2c|BGBd2B|A2Bc2B|AFDD2:|

